X:570
T:Highland Whisky
B:Kerr's Merry Melodies Bk.1 (c.1870s)
Z:Nigel Gatherer
L:1/8
M:4/4
K:A
E | A<A A2 A>Bc<e | Bc d>ef<a | A<A A2 A>Bc>d | ef/g/ a>c B2 A :|
e | c/B/A e>A f>Ae>A | FA Gd | c/B/A e>A f>Ae>A | 
ef/g/ a>c B2 Ae | c/B/A e>A f>Ae>A | FA Gc | A<cB<d c<ed<f |  
ef/g/ a>c B2 A |]
